svgs/thin/menorah.svg

<svg xmlns="http://www.w3.org/2000/svg" viewBox="0 0 640 512"><!-- Font Awesome Pro 6.0.0-alpha2 by @fontawesome - https://fontawesome.com License - https://fontawesome.com/license (Commercial License) --><path d="M608 128C603.594 128 600 131.578 600 136V312C600 342.875 574.875 368 544 368H520V136C520 131.578 516.406 128 512 128S504 131.578 504 136V368H424V136C424 131.578 420.406 128 416 128S408 131.578 408 136V368H328V136C328 131.578 324.406 128 320 128S312 131.578 312 136V368H232V136C232 131.578 228.406 128 224 128S216 131.578 216 136V368H136V136C136 131.578 132.406 128 128 128S120 131.578 120 136V368H96C65.125 368 40 342.875 40 312V136C40 131.578 36.406 128 32 128S24 131.578 24 136V312C24 351.703 56.312 384 96 384H312V496H136C131.594 496 128 499.578 128 504S131.594 512 136 512H504C508.406 512 512 508.422 512 504S508.406 496 504 496H328V384H544C583.688 384 616 351.703 616 312V136C616 131.578 612.406 128 608 128ZM64 61.279C64 45.014 43 10.324 38.797 3.525C35.859 -1.176 28.141 -1.176 25.203 3.525C21 10.324 0 45.014 0 61.279C0 80.426 14.359 96 32 96S64 80.426 64 61.279ZM16 61.279C16 54.604 24 37.869 32 23.551C40 37.869 48 54.604 48 61.279C48 71.588 40.828 79.955 32 79.955S16 71.588 16 61.279ZM128 96C145.641 96 160 80.426 160 61.279C160 45.014 139 10.324 134.797 3.525C131.859 -1.176 124.141 -1.176 121.203 3.525C117 10.324 96 45.014 96 61.279C96 80.426 110.359 96 128 96ZM128 23.551C136 37.869 144 54.604 144 61.279C144 71.588 136.828 79.955 128 79.955S112 71.588 112 61.279C112 54.604 120 37.869 128 23.551ZM224 96C241.641 96 256 80.426 256 61.279C256 45.014 235 10.324 230.797 3.525C227.859 -1.176 220.141 -1.176 217.203 3.525C213 10.324 192 45.014 192 61.279C192 80.426 206.359 96 224 96ZM224 23.551C232 37.869 240 54.604 240 61.279C240 71.588 232.828 79.955 224 79.955S208 71.588 208 61.279C208 54.604 216 37.869 224 23.551ZM320 96C337.641 96 352 80.426 352 61.279C352 45.014 331 10.324 326.797 3.525C323.859 -1.176 316.141 -1.176 313.203 3.525C309 10.324 288 45.014 288 61.279C288 80.426 302.359 96 320 96ZM320 23.551C328 37.869 336 54.604 336 61.279C336 71.588 328.828 79.955 320 79.955S304 71.588 304 61.279C304 54.604 312 37.869 320 23.551ZM416 96C433.641 96 448 80.426 448 61.279C448 45.014 427 10.324 422.797 3.525C419.859 -1.176 412.141 -1.176 409.203 3.525C405 10.324 384 45.014 384 61.279C384 80.426 398.359 96 416 96ZM416 23.551C424 37.869 432 54.604 432 61.279C432 71.588 424.828 79.955 416 79.955S400 71.588 400 61.279C400 54.604 408 37.869 416 23.551ZM512 96C529.641 96 544 80.426 544 61.279C544 45.014 523 10.324 518.797 3.525C515.859 -1.176 508.141 -1.176 505.203 3.525C501 10.324 480 45.014 480 61.279C480 80.426 494.359 96 512 96ZM512 23.551C520 37.869 528 54.604 528 61.279C528 71.588 520.828 79.955 512 79.955S496 71.588 496 61.279C496 54.604 504 37.869 512 23.551ZM614.797 3.525C611.859 -1.176 604.141 -1.176 601.203 3.525C597 10.324 576 45.014 576 61.279C576 80.426 590.359 96 608 96S640 80.426 640 61.279C640 45.014 619 10.324 614.797 3.525ZM608 79.955C599.172 79.955 592 71.588 592 61.279C592 54.604 600 37.869 608 23.551C616 37.869 624 54.604 624 61.279C624 71.588 616.828 79.955 608 79.955Z"/></svg>

<svg xmlns="http://www.w3.org/2000/svg" viewBox="0 0 640 512"><!--! Font Awesome Pro 6.3.0 by @fontawesome - https://fontawesome.com License - https://fontawesome.com/license (Commercial License) Copyright 2023 Fonticons, Inc. --><path d="M608 128c-4.406 0-8 3.578-8 8v176c0 30.88-25.12 56-56 56h-24V136C520 131.6 516.4 128 512 128s-8 3.578-8 8v232h-80V136C424 131.6 420.4 128 416 128s-8 3.578-8 8v232h-80V136C328 131.6 324.4 128 320 128S312 131.6 312 136v232h-80V136C232 131.6 228.4 128 224 128S216 131.6 216 136v232h-80V136C136 131.6 132.4 128 128 128S120 131.6 120 136v232H96c-30.88 0-56-25.12-56-56v-176C40 131.6 36.41 128 32 128S24 131.6 24 136v176C24 351.7 56.31 384 96 384h216v112h-176C131.6 496 128 499.6 128 504S131.6 512 136 512h368c4.406 0 8-3.578 8-8s-3.594-8-8-8h-176V384H544c39.69 0 72-32.3 72-72v-176C616 131.6 612.4 128 608 128zM64 61.28c0-16.27-21-50.96-25.2-57.75c-2.938-4.701-10.66-4.701-13.59 0C21 10.32 0 45.01 0 61.28c0 19.15 14.36 34.72 32 34.72S64 80.43 64 61.28zM16 61.28c0-6.676 8-23.41 16-37.73C40 37.87 48 54.6 48 61.28c0 10.31-7.172 18.68-16 18.68S16 71.59 16 61.28zM128 95.1c17.64 0 32-15.57 32-34.72c0-16.27-21-50.96-25.2-57.75c-2.938-4.701-10.66-4.701-13.59 0C117 10.32 96 45.01 96 61.28C96 80.43 110.4 95.1 128 95.1zM128 23.55C136 37.87 144 54.6 144 61.28c0 10.31-7.172 18.68-16 18.68S112 71.59 112 61.28C112 54.6 120 37.87 128 23.55zM224 95.1c17.64 0 32-15.57 32-34.72c0-16.27-21-50.96-25.2-57.75c-2.938-4.701-10.66-4.701-13.59 0C213 10.32 192 45.01 192 61.28C192 80.43 206.4 95.1 224 95.1zM224 23.55C232 37.87 240 54.6 240 61.28c0 10.31-7.172 18.68-16 18.68S208 71.59 208 61.28C208 54.6 216 37.87 224 23.55zM320 95.1c17.64 0 32-15.57 32-34.72c0-16.27-21-50.96-25.2-57.75c-2.938-4.701-10.66-4.701-13.59 0C309 10.32 288 45.01 288 61.28C288 80.43 302.4 95.1 320 95.1zM320 23.55c8 14.32 16 31.05 16 37.73c0 10.31-7.172 18.68-16 18.68S304 71.59 304 61.28C304 54.6 312 37.87 320 23.55zM416 95.1c17.64 0 32-15.57 32-34.72c0-16.27-21-50.96-25.2-57.75c-2.938-4.701-10.66-4.701-13.59 0C405 10.32 384 45.01 384 61.28C384 80.43 398.4 95.1 416 95.1zM416 23.55c8 14.32 16 31.05 16 37.73c0 10.31-7.172 18.68-16 18.68s-16-8.367-16-18.68C400 54.6 408 37.87 416 23.55zM512 95.1c17.64 0 32-15.57 32-34.72c0-16.27-21-50.96-25.2-57.75c-2.938-4.701-10.66-4.701-13.59 0C501 10.32 480 45.01 480 61.28C480 80.43 494.4 95.1 512 95.1zM512 23.55c8 14.32 16 31.05 16 37.73c0 10.31-7.172 18.68-16 18.68s-16-8.367-16-18.68C496 54.6 504 37.87 512 23.55zM614.8 3.525c-2.938-4.701-10.66-4.701-13.59 0C597 10.32 576 45.01 576 61.28c0 19.15 14.36 34.72 32 34.72s32-15.57 32-34.72C640 45.01 619 10.32 614.8 3.525zM608 79.96c-8.828 0-16-8.367-16-18.68c0-6.676 8-23.41 16-37.73c8 14.32 16 31.05 16 37.73C624 71.59 616.8 79.96 608 79.96z"/></svg>
